X: 56
T:Untitled. HA.055
M:3/4
Q:120
C:in Hand B
S:Henry Atkinson's original MS,Hartburn,N'umberland,1694.
O:England
A:Hartburn,Northumberland
H:1/8
Z:vmp.Chris Partington.Jan.2004
K:Bb
d2|g^fgagd|g^fgagd|g^fgaga|b=efgf2|!
fgabag|f2g2a2|f2gf=ef|d6:|!
|dcdede|d2g2f2|e2d2c2|B4B2|!
(BA)(GA)(Bc)|B2GAB2|B2(GA)(BG)|c2A2A2|!
dcdede|d2g2ab|f2d2B2|B4B2|!
BAGABc|dcd=efd|g2a2^f2|g4|]
